qaazqaaz/images/landing/shapes/square126x126.svg

<?xml version="1.0" encoding="UTF-8"?>
<svg width="126px" height="126px" viewBox="0 0 126 126" version="1.1" xmlns="http://www.w3.org/2000/svg" xmlns:xlink="http://www.w3.org/1999/xlink">
    <!-- Generator: Sketch 47 (45396) - http://www.bohemiancoding.com/sketch -->
    <title>Rectangle 7</title>
    <desc>Created with Sketch.</desc>
    <defs>
        <path d="M75,39 C85,38 112.264254,37 120,37 C128.095954,37 155,38 165,39 C175,40 180,45 181,55 C182,65 183,91.8603736 183,100 C183,108.170477 182,135 181,145 C180,155 175,160 165,160.973848 C155,161.947697 128.213583,163 120,163 C111.801851,163 85.1893334,161.947697 75.0946667,160.973848 C65,160 60,155 59,144 C58,133 57,108.172829 57,100 C57,91.6302743 58,66 59,55 C60,44 65,40 75,39 Z" id="path-1"></path>
    </defs>
    <g id="Page-1" stroke="none" stroke-width="1" fill="none" fill-rule="evenodd">
        <g id="Artboard" transform="translate(-57.000000, -37.000000)">
            <g id="Rectangle-7">
                <use fill="#D8D8D8" fill-rule="evenodd" xlink:href="#path-1"></use>
                <path stroke="#979797" stroke-width="1" d="M75.0497519,39.4975186 C64.8355056,40.5189432 60.4377648,44.7072678 59.4979466,55.0452679 C58.5825459,65.1146752 57.5,90.601514 57.5,100 C57.5,109.10039 58.5782539,133.838113 59.4979466,143.954732 C60.4660532,154.603904 65.180767,159.515118 75.1426796,160.476159 C84.3480508,161.364216 110.734293,162.5 120,162.5 C129.322115,162.5 155.853003,161.362262 164.951537,160.476203 C174.710603,159.525818 179.525849,154.716568 180.502481,144.950248 C181.397171,136.003352 182.5,109.598126 182.5,100 C182.5,90.4224399 181.39651,63.9900372 180.502481,55.0497519 C179.526161,45.2865464 174.713454,40.4738391 164.950248,39.4975186 C156.019305,38.6044242 129.548448,37.5 120,37.5 C110.691672,37.5 83.9043815,38.6120556 75.0497519,39.4975186 Z"></path>
            </g>
        </g>
    </g>
</svg>

<svg width="126" height="126" viewBox="0 0 126 126" xmlns="http://www.w3.org/2000/svg" xmlns:xlink="http://www.w3.org/1999/xlink"><title>Rectangle 7</title><defs><path d="M75 39c10-1 37.264-2 45-2 8.096 0 35 1 45 2s15 6 16 16 2 36.86 2 45c0 8.17-1 35-2 45s-6 15-16 15.974c-10 .974-36.786 2.026-45 2.026-8.198 0-34.81-1.052-44.905-2.026C65 160 60 155 59 144c-1-11-2-35.827-2-44 0-8.37 1-34 2-45s6-15 16-16z" id="a"/></defs><g transform="translate(-57 -37)" fill="none" fill-rule="evenodd"><use fill="#D8D8D8" xlink:href="#a"/><path stroke="#979797" d="M75.05 39.498c-10.214 1.02-14.612 5.21-15.552 15.547C58.583 65.115 57.5 90.602 57.5 100c0 9.1 1.078 33.838 1.998 43.955.968 10.649 5.683 15.56 15.645 16.521 9.205.888 35.591 2.024 44.857 2.024 9.322 0 35.853-1.138 44.952-2.024 9.759-.95 14.574-5.76 15.55-15.526.895-8.947 1.998-35.352 1.998-44.95 0-9.578-1.103-36.01-1.998-44.95-.976-9.763-5.789-14.576-15.552-15.552-8.93-.894-35.402-1.998-44.95-1.998-9.308 0-36.096 1.112-44.95 1.998z"/></g></svg>
